icon-svg/bmw-alt.svg

<svg xmlns="http://www.w3.org/2000/svg" fill="#44739e" viewBox="0 0 24 24"><path d="M12 6.566h-.135a5.779 5.779 0 1 0 .135 0m5.028 5.711h-5.08v5.081a5.076 5.076 0 0 1-5.081-5.07v-.011h5.081V7.2a5.075 5.075 0 0 1 5.081 5.069zm-9.597-5.25a.634.634 0 0 0 .169-.261.2.2 0 0 0-.088-.214.206.206 0 0 0-.112-.035.274.274 0 0 0-.116.03.83.83 0 0 0-.195.169c-.212.219-.859.9-.859.9l.345.329Zm-.567-.942a.211.211 0 0 0-.253-.164.46.46 0 0 0-.179.114 10.6 10.6 0 0 0-.872.952l.33.315s.667-.7.847-.9a.372.372 0 0 0 .127-.317M12 2.779A9.222 9.222 0 1 0 21.221 12 9.221 9.221 0 0 0 12 2.779m-1.424.749c.273-.03.544-.053.815-.065l.538 1.337.019.1.019-.1.533-1.337c.272.013.544.034.815.065l.09 2.419c-.2-.033-.393-.059-.584-.077l-.057-1.634.008-.113-.033.108-.539 1.223h-.5l-.547-1.224-.035-.107.011.113-.058 1.634c-.2.019-.39.045-.583.077zM4.839 7.091q.3-.384.622-.751c.62-.692.849-.894 1.145-.925a.6.6 0 0 1 .441.124.575.575 0 0 1 .2.6l-.008.021.023-.008a.611.611 0 0 1 .7.144c.316.367.138.749-.177 1.082-.446.47-.675.7-1.24 1.326Zm8.37 11.049a6 6 0 0 1-1.2.122 5.9 5.9 0 0 1-.607-.031A5.986 5.986 0 0 1 12 6.29h.137a5.985 5.985 0 0 1 1.072 11.85m3.955-9.64c-.108-.141-.3-.374-.435-.518l.618-1.194.056-.077-.075.057-1.2.619c-.135-.124-.346-.3-.507-.429L16.9 4.963c.18.139.32.253.468.378l-.837 1.265-.074.087.094-.064 1.115-.559.394.394-.56 1.115-.064.094.086-.075 1.265-.834q.2.229.378.467zM12 2a10 10 0 1 0 10 10A10.011 10.011 0 0 0 12 2m0 19.726A9.726 9.726 0 1 1 21.726 12 9.737 9.737 0 0 1 12 21.726"/></svg>

<?xml version="1.0" encoding="UTF-8"?>
<svg width="24px" fill="#44739e" height="24px" viewBox="0 0 24 24" version="1.1" xmlns="http://www.w3.org/2000/svg" xmlns:xlink="http://www.w3.org/1999/xlink">
            <path d="m 12,6.566 h -0.135 a 5.779,5.779 0 1 0 0.135,0 z m 5.028,5.711 h -5.08 v 5.081 a 5.076,5.076 0 0 1 -5.081,-5.07 v -0.011 h 5.081 V 7.2 a 5.075,5.075 0 0 1 5.081,5.069 z M 7.431,7.027 A 0.634,0.634 0 0 0 7.6,6.766 0.2,0.2 0 0 0 7.512,6.552 0.206,0.206 0 0 0 7.4,6.517 v 0 A 0.274,0.274 0 0 0 7.284,6.547 0.83,0.83 0 0 0 7.089,6.716 C 6.877,6.935 6.23,7.616 6.23,7.616 L 6.575,7.945 Z M 6.864,6.085 A 0.211,0.211 0 0 0 6.611,5.921 0.457,0.457 0 0 0 6.432,6.035 10.638,10.638 0 0 0 5.56,6.987 l 0.33,0.315 c 0,0 0.667,-0.7 0.847,-0.9 A 0.372,0.372 0 0 0 6.864,6.085 Z M 12,2.779 A 9.222,9.222 0 1 0 21.221,12 9.221,9.221 0 0 0 12,2.779 Z M 10.576,3.528 C 10.849,3.498 11.12,3.475 11.391,3.463 L 11.929,4.8 11.948,4.9 11.967,4.8 12.5,3.463 c 0.272,0.013 0.544,0.034 0.815,0.065 l 0.09,2.419 C 13.205,5.914 13.012,5.888 12.821,5.87 L 12.764,4.236 12.772,4.123 12.739,4.231 12.2,5.454 H 11.7 L 11.153,4.23 11.118,4.123 11.129,4.236 11.071,5.87 c -0.2,0.019 -0.39,0.045 -0.583,0.077 z M 4.839,7.091 Q 5.139,6.707 5.461,6.34 C 6.081,5.648 6.31,5.446 6.606,5.415 v 0 a 0.6,0.6 0 0 1 0.441,0.124 0.575,0.575 0 0 1 0.2,0.6 L 7.239,6.16 7.262,6.152 a 0.611,0.611 0 0 1 0.7,0.144 C 8.278,6.663 8.1,7.045 7.785,7.378 7.339,7.848 7.11,8.078 6.545,8.704 Z m 8.37,11.049 a 6.01,6.01 0 0 1 -1.2,0.122 A 5.889,5.889 0 0 1 11.402,18.231 5.986,5.986 0 0 1 12,6.29 v 0 h 0.137 a 5.985,5.985 0 0 1 1.072,11.85 z M 17.164,8.5 C 17.056,8.359 16.864,8.126 16.729,7.982 l 0.618,-1.194 0.056,-0.077 -0.075,0.057 -1.2,0.619 C 15.993,7.263 15.782,7.087 15.621,6.958 L 16.9,4.963 c 0.18,0.139 0.32,0.253 0.468,0.378 L 16.531,6.606 16.457,6.693 16.551,6.629 17.666,6.07 18.06,6.464 17.5,7.579 17.436,7.673 17.522,7.598 18.787,6.764 q 0.2,0.229 0.378,0.467 z M 12,2 A 10,10 0 1 0 22,12 10.011,10.011 0 0 0 12,2 Z m 0,19.726 A 9.726,9.726 0 1 1 21.726,12 9.737,9.737 0 0 1 12,21.726 Z"/>

</svg>
